X: 891
T: The Silken Vallet
B:O'Neill's 891
Z:Transcribed by Dan G. Petersen, dangp@post6.tele.dk
M:6/8
L:1/8
K:G
c|BGE EFE|AFD DED|BGE GAB|c3 B2A|
BGE EFE|AFD DED|E2c BcA|G3 G2:|
D|G>AG (G<B)d|(e<g)e dBG|G>AG GBd|e2f Tg3|
|1 G>AG GBd|ege dBG|AGE EDE|c2B A2:|
|2 agf gfe|fed edB|cBA BAG|E2F G2|]


